X:1
T:Patsy Ryan's Polka
C:Marcus Turner
N:Written 2006
O:New Zealand
M:2/4
L:1/16
Q:1/4=120
K:D
V:1
"D"F2D2 F2D2|F2D2 D3E|F2A2 "D/F"d3c|"G"c2B2 B3c|
d2B2 BcdB|"D"A2F2 F3G|A2F2 FEDE|"A"F2E2 E2DE|
"D"F2D2 F2D2|F2D2 D3E|F2A2 "D/F"d3c|"G"c2B2 B3c|
d2B2 BcdB|"D"A2F2 FEFG|A2F2 "A"E2FE|"D"D8|
D2F2 FGFE|D2F2 FEFG|A2F2 FEDE|"A"F2E2 E2F2|
"G"G2A2 B2c2|d4 c3B|"D"A2F2 d3F|"A"F2E2 E2FE|
"D"D2F2 FGFE|D2F2 F2FG|A2A2 "A"B2c2|"D"d8|
"G"e2d2 BcdB|"D"A2F2 d2FG|"D"A2F2 "A"E2FE|"D"D8||

